X:1
T: The Handsome Ploughboy
C:
R:Reel
Q: 232
K:A
M:4/4
L:1/8
|:E2|A2 A2 Ac BA|G2 B2 Bd cB|A2 A2 Ac ea|gf ed cB AG|
A2 A2 Ac BA|G2 B2 Bd cB|Ac ea gf ed|c2 A2 A2 ((3efg)|
ae ce ae ce|af df af df|bg eg bg eg|ag fe dc BA|
ce Ae ce Ae|df Bf df Bf|ce gf ed cB|A2 A2 A2:|
